2/images/PSW-4.svg

<svg width="315" height="311" viewBox="0 0 315 311" fill="none" xmlns="http://www.w3.org/2000/svg">
<g id="PSW-4">
<path id="Stroke 1" d="M71.2188 72.8757L121.704 123.367" stroke="#B2B2B2" stroke-width="2" stroke-linecap="round" stroke-linejoin="round"/>
<path id="Stroke 2" d="M22.7207 24.3721L37.9823 39.6367" stroke="#B2B2B2" stroke-width="2" stroke-linecap="round" stroke-linejoin="round"/>
<g id="Group 53">
<path id="Stroke 3" fill-rule="evenodd" clip-rule="evenodd" d="M168.057 152.538C168.057 158.267 163.427 162.91 157.699 162.91C151.97 162.91 147.328 158.267 147.328 152.538C147.328 146.809 151.97 142.179 157.699 142.179C163.427 142.179 168.057 146.809 168.057 152.538Z" stroke="#231F20" stroke-width="2" stroke-linecap="round" stroke-linejoin="round"/>
<path id="Stroke 5" fill-rule="evenodd" clip-rule="evenodd" d="M157.699 125.426C138.952 125.426 123.762 140.618 123.762 159.367C123.762 170.079 128.717 179.637 136.467 185.84C137.785 178.456 142.848 172.401 149.621 169.672L157.713 179.325L165.776 169.645C172.55 172.387 177.613 178.456 178.944 185.828C186.682 179.623 191.636 170.079 191.636 159.367C191.636 140.618 176.445 125.426 157.699 125.426Z" stroke="#231F20" stroke-width="2" stroke-linecap="round" stroke-linejoin="round"/>
<path id="Stroke 7" fill-rule="evenodd" clip-rule="evenodd" d="M197.293 159.367C197.293 181.237 179.566 198.966 157.699 198.966C135.832 198.966 118.105 181.237 118.105 159.367C118.105 137.497 135.832 119.769 157.699 119.769C179.566 119.769 197.293 137.497 197.293 159.367Z" stroke="#B2B2B2" stroke-width="2" stroke-linecap="round" stroke-linejoin="round"/>
<path id="Stroke 9" d="M157.698 50.0403V108.455" stroke="#B2B2B2" stroke-width="2" stroke-linecap="round" stroke-linejoin="round"/>
<path id="Stroke 11" d="M35.8254 205.491V230.343" stroke="#B2B2B2" stroke-width="2" stroke-linecap="round" stroke-linejoin="round"/>
<path id="Stroke 13" d="M118.105 159.367H40.3511C37.8522 159.367 35.8262 161.394 35.8262 163.893V171.197" stroke="#B2B2B2" stroke-width="2" stroke-linecap="round" stroke-linejoin="round"/>
<path id="Stroke 15" d="M268.259 159.367H197.293" stroke="#B2B2B2" stroke-width="2" stroke-linecap="round" stroke-linejoin="round"/>
<path id="Stroke 17" d="M268.26 48.7922L246.232 70.8226" stroke="#B2B2B2" stroke-width="2" stroke-linecap="round" stroke-linejoin="round"/>
<path id="Stroke 19" d="M222.237 94.8218L193.695 123.367" stroke="#B2B2B2" stroke-width="2" stroke-linecap="round" stroke-linejoin="round"/>
<path id="Stroke 21" d="M292.677 24.3721L277.414 39.6367" stroke="#B2B2B2" stroke-width="2" stroke-linecap="round" stroke-linejoin="round"/>
<path id="Stroke 23" d="M279.571 207.718V163.893C279.571 161.394 277.546 159.367 275.046 159.367H197.293" stroke="#B2B2B2" stroke-width="2" stroke-linecap="round" stroke-linejoin="round"/>
<path id="Stroke 25" fill-rule="evenodd" clip-rule="evenodd" d="M65.2384 298.226H6.41365C3.91473 298.226 1.88867 296.2 1.88867 293.7V234.868C1.88867 232.369 3.91473 230.343 6.41365 230.343H65.2384C67.7373 230.343 69.7633 232.369 69.7633 234.868V293.7C69.7633 296.2 67.7373 298.226 65.2384 298.226Z" stroke="#B2B2B2" stroke-width="2" stroke-linecap="round" stroke-linejoin="round"/>
<path id="Stroke 27" d="M267.586 224.582L259.813 211.113C258.942 209.608 260.028 207.719 261.77 207.719H297.37C299.112 207.719 300.198 209.608 299.328 211.113L291.567 224.582" stroke="#1A1A1A" stroke-width="2" stroke-linecap="round" stroke-linejoin="round"/>
<path id="Stroke 29" fill-rule="evenodd" clip-rule="evenodd" d="M251.291 82.9095C251.291 73.5371 243.693 65.9387 234.322 65.9387C224.951 65.9387 217.354 73.5371 217.354 82.9095C217.354 92.2831 224.951 99.8803 234.322 99.8803C243.693 99.8803 251.291 92.2831 251.291 82.9095Z" stroke="#1A1A1A" stroke-width="2" stroke-linecap="round" stroke-linejoin="round"/>
<path id="Stroke 31" fill-rule="evenodd" clip-rule="evenodd" d="M67.9028 43.1968H49.4115C49.0076 43.1968 48.6343 43.4117 48.4318 43.7625L39.1862 59.7773C38.9848 60.128 38.9848 60.559 39.1862 60.9086L48.4318 76.9246C48.6343 77.2742 49.0076 77.4902 49.4115 77.4902H67.9028C68.3055 77.4902 68.68 77.2742 68.8813 76.9246L78.127 60.9086C78.3295 60.559 78.3295 60.128 78.127 59.7773L68.8813 43.7625C68.68 43.4117 68.3055 43.1968 67.9028 43.1968Z" stroke="#1A1A1A" stroke-width="2" stroke-linecap="round" stroke-linejoin="round"/>
<path id="Stroke 33" fill-rule="evenodd" clip-rule="evenodd" d="M45.0725 171.197H26.5811C26.1773 171.197 25.804 171.413 25.6015 171.763L16.3569 187.779C16.1545 188.128 16.1545 188.56 16.3569 188.91L25.6015 204.926C25.804 205.276 26.1773 205.492 26.5811 205.492H45.0725C45.4763 205.492 45.8496 205.276 46.0521 204.926L55.2966 188.91C55.4991 188.56 55.4991 188.128 55.2966 187.779L46.0521 171.763C45.8496 171.413 45.4763 171.197 45.0725 171.197Z" stroke="#1A1A1A" stroke-width="2" stroke-linecap="round" stroke-linejoin="round"/>
<path id="Stroke 35" d="M50.6022 256.683L33.5487 273.739L22.1797 262.367" stroke="#231F20" stroke-width="2" stroke-linecap="round" stroke-linejoin="round"/>
<path id="Stroke 37" fill-rule="evenodd" clip-rule="evenodd" d="M308.982 298.226H250.158C247.659 298.226 245.633 296.2 245.633 293.7V234.868C245.633 232.369 247.659 230.343 250.158 230.343H308.982C311.483 230.343 313.507 232.369 313.507 234.868V293.7C313.507 296.2 311.483 298.226 308.982 298.226Z" stroke="#B2B2B2" stroke-width="2" stroke-linecap="round" stroke-linejoin="round"/>
<path id="Stroke 39" d="M157.693 14.6761V1.1311" stroke="#B2B2B2" stroke-width="2" stroke-linecap="round" stroke-linejoin="round"/>
<path id="Stroke 41" d="M157.698 232.347V198.966" stroke="#B2B2B2" stroke-width="2" stroke-linecap="round" stroke-linejoin="round"/>
<path id="Stroke 43" d="M157.693 277.602V309.539" stroke="#B2B2B2" stroke-width="2" stroke-linecap="round" stroke-linejoin="round"/>
<path id="Stroke 45" d="M269.389 254.102L289.751 274.467" stroke="#231F20" stroke-width="2" stroke-linecap="round" stroke-linejoin="round"/>
<path id="Stroke 47" d="M289.751 254.102L269.389 274.467" stroke="#231F20" stroke-width="2" stroke-linecap="round" stroke-linejoin="round"/>
<path id="Stroke 49" fill-rule="evenodd" clip-rule="evenodd" d="M159.657 48.9089L177.459 18.0707C178.33 16.5614 177.242 14.6765 175.5 14.6765H139.895C138.153 14.6765 137.065 16.5614 137.936 18.0707L155.738 48.9089C156.609 50.417 158.786 50.417 159.657 48.9089Z" stroke="#1A1A1A" stroke-width="2" stroke-linecap="round" stroke-linejoin="round"/>
<path id="Stroke 51" fill-rule="evenodd" clip-rule="evenodd" d="M174.66 249.318C174.66 239.946 167.063 232.347 157.691 232.347C148.32 232.347 140.723 239.946 140.723 249.318C140.723 258.69 148.32 266.289 157.691 266.289C167.063 266.289 174.66 258.69 174.66 249.318Z" stroke="#1A1A1A" stroke-width="2" stroke-linecap="round" stroke-linejoin="round"/>
</g>
</g>
</svg>

<svg width="315" height="311" fill="none" xmlns="http://www.w3.org/2000/svg"><g stroke-width="2" stroke-linecap="round" stroke-linejoin="round"><path d="M71.22 72.88l50.48 50.49M22.72 24.37l15.26 15.27" stroke="#B2B2B2"/><path clip-rule="evenodd" d="M168.06 152.54a10.36 10.36 0 11-20.72.02 10.36 10.36 0 0120.72-.02z" stroke="#231F20"/><path clip-rule="evenodd" d="M157.7 125.43a33.93 33.93 0 00-21.23 60.41 21.54 21.54 0 0113.15-16.17l8.1 9.66 8.06-9.69a21.65 21.65 0 0113.16 16.19 33.93 33.93 0 00-21.24-60.4z" stroke="#231F20"/><path clip-rule="evenodd" d="M197.3 159.37a39.6 39.6 0 11-79.2 0 39.6 39.6 0 0179.2 0z" stroke="#B2B2B2"/><path d="M157.7 50.04v58.41M35.83 205.5v24.84M118.1 159.37H40.36a4.53 4.53 0 00-4.52 4.52v7.3M268.26 159.37h-70.97M268.26 48.8l-22.03 22.02M222.24 94.82l-28.55 28.55M292.68 24.37L277.4 39.64M279.57 207.72v-43.83c0-2.5-2.02-4.52-4.52-4.52h-77.76" stroke="#B2B2B2"/><path clip-rule="evenodd" d="M65.24 298.23H6.4a4.53 4.53 0 01-4.52-4.53v-58.83c0-2.5 2.02-4.53 4.52-4.53h58.83c2.5 0 4.52 2.03 4.52 4.53v58.83c0 2.5-2.02 4.53-4.52 4.53z" stroke="#B2B2B2"/><path d="M267.59 224.58l-7.78-13.47c-.87-1.5.22-3.4 1.96-3.4h35.6a2.26 2.26 0 011.96 3.4l-7.76 13.47" stroke="#1A1A1A"/><path clip-rule="evenodd" d="M251.3 82.9a16.97 16.97 0 10-33.95 0 16.97 16.97 0 0033.94 0zM67.9 43.2H49.41c-.4 0-.78.21-.98.56L39.2 59.78c-.2.35-.2.78 0 1.13l9.24 16.01c.2.35.58.57.98.57h18.5c.4 0 .77-.22.97-.57l9.25-16.01c.2-.35.2-.78 0-1.13l-9.25-16.02c-.2-.35-.57-.56-.98-.56zM45.07 171.2H26.58c-.4 0-.78.21-.98.56l-9.24 16.02c-.2.35-.2.78 0 1.13l9.24 16.02c.2.35.58.56.98.56h18.5c.4 0 .77-.21.97-.56l9.25-16.02c.2-.35.2-.78 0-1.13l-9.25-16.02c-.2-.35-.57-.56-.98-.56z" stroke="#1A1A1A"/><path d="M50.6 256.68l-17.05 17.06-11.37-11.37" stroke="#231F20"/><path clip-rule="evenodd" d="M308.98 298.23h-58.82a4.53 4.53 0 01-4.53-4.53v-58.83c0-2.5 2.03-4.53 4.53-4.53h58.82c2.5 0 4.53 2.03 4.53 4.53v58.83c0 2.5-2.03 4.53-4.53 4.53z" stroke="#B2B2B2"/><path d="M157.7 14.68V1.13M157.7 232.35v-33.38M157.7 277.6v31.94" stroke="#B2B2B2"/><path d="M269.39 254.1l20.36 20.37M289.75 254.1l-20.36 20.37" stroke="#231F20"/><path clip-rule="evenodd" d="M159.66 48.9l17.8-30.83c.87-1.5-.22-3.4-1.96-3.4h-35.6a2.26 2.26 0 00-1.96 3.4l17.8 30.84a2.26 2.26 0 003.92 0zM174.66 249.32a16.97 16.97 0 10-33.94 0 16.97 16.97 0 0033.94 0z" stroke="#1A1A1A"/></g></svg>
